src/components/00-materials/images-raw/P&C/Cancelation.svg

<svg xmlns="http://www.w3.org/2000/svg" viewBox="0 0 96 96"><g fill="none" stroke="#00008f" stroke-linecap="round" stroke-linejoin="round"><path d="M65 38.85v37.58a4.2 4.2 0 0 1-4.34 4H28.82a4.21 4.21 0 0 1-4.34-4V73.5m0-50.02v-4.1a4.21 4.21 0 0 1 4.34-4h31.83a4.4 4.4 0 0 1 3.9 2.25V18" stroke-width="2"/><rect x="41.31" y="41.3" width="16.39" height="19.4" rx="2" stroke-width="2"/><path d="M45.75 46.15h7.5M45.75 51h7.5m-7.5 4.85h7.5" stroke-width="1.82"/><path d="M34.41 15.36V80M21 27.48a3.49 3.49 0 1 1 7 0m-7 7.06a3.49 3.49 0 1 1 7 0m-7 7.07a3.49 3.49 0 1 1 7 0m-7 7.06a3.49 3.49 0 1 1 7 0m-7 7.07a3.49 3.49 0 1 1 7 0m-7 7.06a3.49 3.49 0 1 1 7 0m-3.52 10.7A3.54 3.54 0 1 1 28 70m37.16-31.14h-.44a10.47 10.47 0 1 1 .44 0m-4.33-14.33l7.78 7.78m-7.78 0l7.78-7.78" stroke-width="2"/></g></svg>

<svg xmlns="http://www.w3.org/2000/svg" viewBox="0 0 96 96"><defs><style>.cls-2,.cls-3{fill:none;stroke:#00008f;stroke-linecap:round;stroke-linejoin:round}.cls-2{stroke-width:2px}.cls-3{stroke-width:1.82px}</style></defs><g id="Layer_2" ><g id="icons"><path class="cls-2" d="M65 38.85v37.58a4.2 4.2 0 0 1-4.34 4H28.82a4.21 4.21 0 0 1-4.34-4V73.5M24.48 23.48v-4.1a4.21 4.21 0 0 1 4.34-4h31.83a4.4 4.4 0 0 1 3.9 2.25V18"/><rect class="cls-2" x="41.31" y="41.3" width="16.39" height="19.4" rx="2"/><path class="cls-3" d="M45.75 46.15h7.5M45.75 51h7.5M45.75 55.85h7.5"/><path class="cls-2" d="M34.41 15.36V80M21 27.48a3.49 3.49 0 1 1 7 0M21 34.54a3.49 3.49 0 1 1 7 0M21 41.61a3.49 3.49 0 1 1 7 0M21 48.67a3.49 3.49 0 1 1 7 0M21 55.74a3.49 3.49 0 1 1 7 0M21 62.8a3.49 3.49 0 1 1 7 0M24.48 73.5A3.54 3.54 0 1 1 28 70M65.16 38.86h-.44a10.47 10.47 0 1 1 .44 0M60.83 24.53l7.78 7.78M60.83 32.31l7.78-7.78"/></g></g></svg>
